X:223
T:Fire Down Below (b)
M:C
L:1/8
Q:1/4=3D150
K:Fm
C|\
FFFG AAAB|ccce c2CC|F2G2 A2B2|c6 AB|
cccA BBBG|AAAF G2c2|AF3  G3=3DE|F6 ||
